!!!!SEGMENT: pl-gd--ee-1638--007-001_marenzio-luca--il-terzo-libro-de-madrigalia-a-sei-voci-io-moriro.krn
!!!cenid: 15xx:842
!!!COM: Marenzio, Luca
!!!COM-rismID: pe30003955
!!!CDT: ~1553-1599/08/22
!!!CNT: Italian
!!!GTL: Il Terzo Libro de madrigalia a sei voci
!!!OTL: Io morirò
!!!OMV: 001
!!!PDT: 1585
!!!AGN:
!!!SMS-siglum: PL-GD
!!!SMS-shelfmark: Ee 1638
!!!SMS-variant:
!!!SMS-altvar:
!!!SMS-shelfwork: 007-001 G
!!!NIFC-rismSourceID: 990039250
!!!NIFC-islandoraID: pl-gd:57883
!!!URL-pdf-islandora: https://repozytorium.nifc.pl/islandora/object/pl-gd%3A57883/datastream/PDF/view
!!!URL-scan: https://polish.musicsources.pl/pl/lokalizacje/galeria/klocki-introligatorskie/655 @EN{Scan on Polish Music Sources Website} @PL{Skany w portalu Dziedzictwo Muzyki Polskiej w otwartym dostępie}
!!!ONB-nifc: UWAGA: zbiór na stronach: Canto: s. 694-704, Alto: s. 542-552, Tenore: s. 390-400, Basso: s. 237-248, Quinto: s. 85-96, Sesto: s. 3-14. Uwaga: utwory podzielone wg tytułów w spisach treści dostępnych na końcu każdej księgi głosowej.
!!!AIN: 1 alto 1 bass 1 soprn 1 tenor 2 vox
!!!key: G
**kern	**text	**kern	**text	**kern	**text	**kern	**text	**kern	**text	**kern	**text
*part6	*part6	*part5	*part5	*part4	*part4	*part3	*part3	*part2	*part2	*part1	*part1
*staff6	*staff6	*staff5	*staff5	*staff4	*staff4	*staff3	*staff3	*staff2	*staff2	*staff1	*staff1
*I"SESTO	*	*I"QVINTO	*	*I"BASSO	*	*I"TENORE	*	*I"ALTO	*	*I"CANTO	*
*I'V II	*	*I'V I	*	*I'B	*	*I'T	*	*I'A	*	*I'S	*
*ICvox	*	*ICvox	*	*ICvox	*	*ICvox	*	*ICvox	*	*ICvox	*
*Ivox	*	*Ivox	*	*Ibass	*	*Itenor	*	*Ialto	*	*Isoprn	*
*clefC4	*	*clefC1	*	*clefF4	*	*clefC4	*	*clefC3	*	*clefC1	*
*k[]	*	*k[]	*	*k[]	*	*k[]	*	*k[]	*	*k[]	*
*G:	*	*G:	*	*G:	*	*G:	*	*G:	*	*G:	*
*M2/1	*	*M2/1	*	*M2/1	*	*M2/1	*	*M2/1	*	*M2/1	*
*met(C|)	*	*met(C|)	*	*met(C|)	*	*met(C|)	*	*met(C|)	*	*met(C|)	*
=1-	=1-	=1-	=1-	=1-	=1-	=1-	=1-	=1-	=1-	=1-	=1-
4r	.	4r	.	2G\	IO	4r	.	4r	.	4r	.
4G/	IO	4dd\	IO	.	.	4d\	IO	4g\	IO	4b\	IO
4.G/	mo-	4.ee\	mo	4.C/	mo-	4.c\	mo-	4.g\	mo-	4.cc\	mo-
8D/	-ri-	8dd\	-ri-	8BB/	-ri-	8G/	-ri-	8g\	-ri-	8dd\	-ri-
4G/	-rò	4cc\	-rò	4C/	-rò	4E/	-rò	4g\	-rò	4ee\	-rò
4E/	d'A-	4g/	d'A-	4E\	d'A-	4G/	d'A-	4g\	d'A-	4b\	d'A-
2A/	-mo-	2a\	-mo-	2D/	-mo-	2d\	-mo-	2f#X\	-mo-	2dd\	-mo-
=2-	=2-	=2-	=2-	=2-	=2-	=2-	=2-	=2-	=2-	=2-	=2-
1G	-re	1b	-re	1GG	-re	1B	-re	1g	-re	1dd	-re
4B\	S'al	4g\	S'al	4G\	S'al	1r	.	4d\	S'al	4b\	S'al
4B\	mio	4g\	mio	4G\	mio	.	.	4d\	mio	4b\	mio
4.B\	ſcam-	4.g\	ſcam-	4.G\	ſcam-	.	.	4.d\	ſcam-	4.b\	ſcam-
8B\	-po	8b\	-po	8E\	-po	.	.	8e\	-po-	8g#X\	-po
=3-	=3-	=3-	=3-	=3-	=3-	=3-	=3-	=3-	=3-	=3-	=3-
4A\	non	4cc\	non	4A\	non	2r	.	4e\	-no	4a\	non
!LO:SIC:v:t=custos c	!	!	!	!LO:SIC:v:t=custos f	!	!	!	!	!	!LO:SIC:v:t=custos cc	!
2d\	vie	2dd\	viẽ	2G\	viẽ	.	.	2g\	viẽ	2b\	vien
.	.	.	.	.	.	4r	.	.	.	.	.
!LO:LB:g=original	!	!	!	!LO:LB:g=original	!	!	!	!	!	!LO:LB:g=original	!
4.c\	ſde-	4.ee\	ſde-	4.C/	ſde-	4.G/	ſde-	4.g\	ſde-	4.cc\	ſde-
!	!	!	!	!	!	!	!	!LO:SIC:v:t=custos c	!	!	!
8d\	-gn'e	8dd\	-gn'e	8GG/	-gno e	8G/	-gno e	8g\	-gno e	8b\	-gno e
!	!	!LO:SIC:v:t=custos b	!	!	!	!	!	!LO:LB:g=original	!	!	!
4A/	fu-	4cc\	fu-	4AA/	fu-	4E/	fu-	4c/	fu-	4a\	fu-
!	!	!LO:LB:g=original	!	!	!	!	!	!	!	!	!
2B\	-ro-	2b\	-ro-	2E\	-ro-	2E/	-ro-	2e\	-ro-	2g#X/	-ro-
=4-	=4-	=4-	=4-	=4-	=4-	=4-	=4-	=4-	=4-	=4-	=4-
1A	-re	1cc	-re	0AA	-re	1E	-re	1e	-re	1a	-re
1r	.	2r	.	.	.	1A	Poi	2r	.	2r	.
.	.	2a\	Poi	.	.	.	.	2c/	Poi	2e/	Poi
=5-	=5-	=5-	=5-	=5-	=5-	=5-	=5-	=5-	=5-	=5-	=5-
!	!	!	!	!	!	!LO:SIC:v:t=custos F	!	!	!	!	!
00r	.	2b\	che	00r	.	2G/	che	2d\	che	2gny/	che
!	!	!	!	!	!	!LO:LB:g=original	!	!	!	!	!
.	.	2cc\	Ma-	.	.	2F/	Ma-	2fny\	Ma-	2a\	Ma-
.	.	1dd	-don'-	.	.	1B-X	-don-	1f	-don-	1b-X	-don-
=6-	=6-	=6-	=6-	=6-	=6-	=6-	=6-	=6-	=6-	=6-	=6-
.	.	4cc\	-al-	.	.	4F/	-n'al-	4f\	-n'al-	4a\	-n'al-
.	.	2a\	-la	.	.	2F/	-la	2f\	-la	2cc\	-la
.	.	4g/	mia	.	.	4G/	mia	4d\	mia	4bny\	mia
.	.	4f/	ve-	.	.	4A/	ve-	4c/	ve-	4a\	ve-
.	.	4e/	-ra	.	.	4c\	-ra	4c/	-ra	4g\	-ra
.	.	1d/	fe-	.	.	1G/	fe-	1B/	fe-	1g\	fe-
=7-	=7-	=7-	=7-	=7-	=7-	=7-	=7-	=7-	=7-	=7-	=7-
00r	.	.	.	00r	.	.	.	.	.	.	.
.	.	4d/	-de	.	.	2G/	-de	2B/	-de	2b\	-de
.	.	2g/	So-	.	.	.	.	.	.	.	.
.	.	.	.	.	.	1d	So-	2r	.	1a	So-
.	.	8f/	.	.	.	.	.	.	.	.	.
.	.	8e/	.	.	.	.	.	.	.	.	.
.	.	2f#X/	.	.	.	.	.	2d\	So-	.	.
=8-	=8-	=8-	=8-	=8-	=8-	=8-	=8-	=8-	=8-	=8-	=8-
.	.	4.g/	-lo	.	.	4.G/	-lo	4.d\	-lo	4.b\	-lo
!	!	!	!	!	!	!	!	!	!	!LO:SIC:v:t=custos b	!
.	.	8a\	de	.	.	8F#X/	de	8d\	de	8a\	de
!	!	!	!	!	!	!	!	!	!	!LO:LB:g=original	!
.	.	4g/	fint'-	.	.	4G/	fint'	4d\	fint'-	4b\	fin-
!	!	!LO:SIC:v:t=custos f#	!	!	!	!	!	!	!	!	!
.	.	4e/	-A-	.	.	4A/	A-	4a\	-A-	4cc#X\	-to A-
!	!	!LO:LB:g=original	!	!	!	!	!	!LO:SIC:v:t=custos d	!	!	!
.	.	2f#X/	-mor	.	.	2D/	-mor	2a\	-mor	2dd\	-mor
!	!	!	!	!	!	!	!	!LO:LB:g=original	!	!	!
.	.	4g/	vuol-	.	.	4G/	vuol	4d\	vuol	4b\	vuol-
.	.	2a\	-dar	.	.	2F#/	dar	2f\	dar	2cc#\	-dar
=9-	=9-	=9-	=9-	=9-	=9-	=9-	=9-	=9-	=9-	=9-	=9-
1r	.	.	.	1r	.	.	.	.	.	.	.
.	.	4g/	mer-	.	.	4C/	mer-	4e\	mer-	4cc#yX\	mer-
!	!	!	!	!	!	!LO:SIC:v:t=custos C	!	!	!	!	!
.	.	2g/	-ce-	.	.	2G/	-ce-	2d\	-ce-	2b\	-ce-
!	!	!	!	!	!	!LO:LB:g=original	!	!	!	!	!
2r	.	1g	-de	2r	.	1C	-de	1e	-de	1ccny	-de
2.G/	E	.	.	2.C/	E	.	.	.	.	.	.
=10-	=10-	=10-	=10-	=10-	=10-	=10-	=10-	=10-	=10-	=10-	=10-
.	.	2r	.	.	.	2.c\	E	2r	.	2.g\	E
4G/	per-	.	.	4C/	per	.	.	.	.	.	.
1G	-che	2.cc\	E	1C	che	.	.	2.e\	E	.	.
.	.	.	.	.	.	4c\	per	.	.	4g/	per
.	.	.	.	.	.	1c	che	.	.	2g/	che
.	.	4cc\	per	.	.	.	.	4e\	per	.	.
1A\	del	2ee\	che	1AA/	del	.	.	2e\	che	1cc\	del
=11-	=11-	=11-	=11-	=11-	=11-	=11-	=11-	=11-	=11-	=11-	=11-
.	.	2a\	del	.	.	2c\	del	2e\	del	.	.
2B\	mio	2dd\	mio	2GG/	mio	2d\	mio	1g	mio	2b\	mio
1d	fo-	1dd	fo-	1D	fo-	1A	fo-	.	.	1a	fo-
.	.	.	.	.	.	.	.	2f#X\	fo-	.	.
=12-	=12-	=12-	=12-	=12-	=12-	=12-	=12-	=12-	=12-	=12-	=12-
!	!	!	!	!	!	!	!	!	!	!	!
1d	-co	1dd	-co	1D	-co	2A/	-co	1f#	-co	1a	-co
.	.	.	.	.	.	4r	.	.	.	.	.
.	.	.	.	.	.	4.d\	Pren-	.	.	.	.
!	!	!	!	!	!	!	!	!	!	!	!
4.B\	Pren-	1r	.	4.G\	Pren-	.	.	1r	.	4.g/	Pren-
.	.	.	.	.	.	8c\	-de	.	.	.	.
.	.	.	.	.	.	4d\	ſo-	.	.	.	.
8A\	-de	.	.	8F\	-de	.	.	.	.	8a\	-de
4B\	ſo-	.	.	4G\	ſo-	2e\	-laz-	.	.	4g/	ſo-
2c\	-laz-	.	.	2A\	-laz-	.	.	.	.	2e/	-laz-
=13-	=13-	=13-	=13-	=13-	=13-	=13-	=13-	=13-	=13-	=13-	=13-
.	.	4r	.	.	.	2A\	-zo	2r	.	.	.
!LO:SIC:v:t=custos B	!	!	!	!LO:SIC:v:t=custos G	!	!	!	!	!	!LO:SIC:v:t=custos d	!
4A/	-zo e	4.dd\	Pren-	4D\	-zo e	.	.	.	.	4f/	-zo e
!LO:LB:g=original	!	!	!	!LO:LB:g=original	!	!	!	!	!	!LO:LB:g=original	!
2B\	gio-	.	.	2G\	gio-	2r	.	4.g\	Pren-	2d/	gio-
.	.	8cc\	-de	.	.	.	.	.	.	.	.
.	.	4dd\	ſo-	.	.	.	.	.	.	.	.
.	.	.	.	.	.	.	.	8fny\	-de	.	.
2e\	-co	2ee\	-laz-	2C/	-co	2r	.	4g\	ſo-	2c/	-co
.	.	.	.	.	.	.	.	2a\	-laz-	.	.
!	!	!LO:SIC:v:t=custos dd	!	!	!	!	!	!	!	!	!
2r	.	4cc#X\	-zo e	2r	.	4r	.	.	.	2r	.
!	!	!LO:LB:g=original	!	!	!	!	!	!	!	!	!
.	.	2dd\	gio-	.	.	4.d\	Pren-	4f#X\	-zo e	.	.
=14-	=14-	=14-	=14-	=14-	=14-	=14-	=14-	=14-	=14-	=14-	=14-
2r	.	.	.	4.G\	Pren-	.	.	4g\	gio-	4.b\	Pren-
.	.	.	.	.	.	8c\	-de	.	.	.	.
!	!	!	!	!	!	!	!	!LO:SIC:v:t=custos e	!	!	!
.	.	4dd\	-co	.	.	2d\	ſo-	4g\	-co	.	.
.	.	.	.	8F\	-de	.	.	.	.	8a\	-de
!	!	!	!	!	!	!	!	!LO:LB:g=original	!	!	!
4.B\	Pren-	4.g/	Pren-	4G\	ſo-	.	.	4r	.	2b\	ſo-
.	.	.	.	2E\	-laz-	4e\	-laz-	4.e\	Pren-	.	.
8A\	-de	8f#X/	-de	.	.	.	.	.	.	.	.
!	!	!	!	!	!	!LO:SIC:v:t=custos A	!	!	!	!	!
4B\	ſo-	4g#X/	ſo-	.	.	4E/	-zo	.	.	2ee\	-laz-
.	.	.	.	.	.	.	.	8d\	-de	.	.
!	!	!	!	!	!	!LO:LB:g=original	!	!	!	!	!
4c\	-laz-	2a\	-laz-	4AA/	-zo e	4.A/	Pren-	4e\	ſo-	.	.
4A\	-zo	.	.	2D/	gio-	.	.	2f#X\	-laz-	2a\	-zo
.	.	.	.	.	.	8G/	-de	.	.	.	.
4.d\	Pren-	4d/	-zo	.	.	4A/	ſo-	.	.	.	.
=15-	=15-	=15-	=15-	=15-	=15-	=15-	=15-	=15-	=15-	=15-	=15-
.	.	4r	.	2GG/	-co	4Bny\	-laz-	4g\	-zo	4.dd\	Pren-
8c\	-de	.	.	.	.	.	.	.	.	.	.
4d\	ſo-	4.b\	Pren-	.	.	4G/	-zo	4.d\	Pren-	.	.
.	.	.	.	.	.	.	.	.	.	8cc\	-de
2.B\	-laz-	.	.	4.G\	Pren-	2r	.	.	.	4dd\	ſo-
.	.	8a\	-de	.	.	.	.	8c/	-de	.	.
.	.	2b\	ſo-	.	.	.	.	4d\	ſo-	2g/	-laz-
.	.	.	.	8F\	-de	.	.	.	.	.	.
.	.	.	.	4G\	ſo-	1r	.	2.e\	-laz-	.	.
4e\	-zo e	2ccny\	-laz-	2A\	-laz-	.	.	.	.	4c/	-zo e
8A\	gio-	.	.	.	.	.	.	.	.	2cc\	gio-
8B\	.	.	.	.	.	.	.	.	.	.	.
8c\	.	4a\	-zo e	4F\	-zo e	.	.	4fny\	-zo e	.	.
8A\	.	.	.	.	.	.	.	.	.	.	.
=16-	=16-	=16-	=16-	=16-	=16-	=16-	=16-	=16-	=16-	=16-	=16-
8B\	.	4.gny/	gio-	0G	gio-	0r	.	4d\	gio-	1b	-co
8A\	.	.	.	.	.	.	.	.	.	.	.
8G/	.	.	.	.	.	.	.	8e\	.	.	.
8A\	.	16fny/	.	.	.	.	.	8f\	.	.	.
.	.	16e/	.	.	.	.	.	.	.	.	.
8B\	.	4.d/	.	.	.	.	.	4g\	.	.	.
8c\	.	.	.	.	.	.	.	.	.	.	.
8d\	.	.	.	.	.	.	.	8f\	.	.	.
!LO:SIC:v:t=custos B	!	!	!	!	!	!	!	!	!	!	!
8c\	.	16e/	.	.	.	.	.	8e\	.	.	.
.	.	16f/	.	.	.	.	.	.	.	.	.
!LO:LB:g=original	!	!LO:SIC:v:t=custos g	!	!	!	!	!	!	!	!	!
4B\	.	1g	.	.	.	.	.	4d\	.	1r	.
2c\	.	.	.	.	.	.	.	4c/	.	.	.
.	.	.	.	.	.	.	.	2d\	.	.	.
4B\	.	.	.	.	.	.	.	.	.	.	.
!	!	!LO:LB:g=original	!	!	!	!	!	!	!	!	!
=17-	=17-	=17-	=17-	=17-	=17-	=17-	=17-	=17-	=17-	=17-	=17-
2c\	-co	2g/	-co	2C/	-co	4r	.	4e\	-co	4r	.
!	!	!	!	!	!	!	!	!LO:SIC:v:t=custos e	!	!	!
.	.	.	.	.	.	4c\	Se	4e\	Se	4ee\	Se
!	!	!	!	!	!	!	!	!LO:LB:g=original	!	!	!
2r	.	2r	.	2r	.	4A/	qual-	4e\	qual-	4cc\	qual-
.	.	.	.	.	.	4G/	-che	4g\	-che	4dd\	-che
4r	.	4r	.	4r	.	2c\	gel	2g\	gel	2ee\	gel
4c\	Se	4ee\	Se	4C/	Se	.	.	.	.	.	.
!	!	!	!	!	!	!	!	!	!	!LO:SIC:v:t=custos ee	!
4A/	qual-	4cc\	qual-	4F\	qual-	2r	.	2r	.	2r	.
!	!	!	!	!LO:SIC:v:t=custos C	!	!	!	!	!	!	!
4B\	-che	4dd\	-che	4D/	-che	.	.	.	.	.	.
!	!	!	!	!LO:LB:g=original	!	!	!	!	!	!LO:LB:g=original	!
=18-	=18-	=18-	=18-	=18-	=18-	=18-	=18-	=18-	=18-	=18-	=18-
2c\	gel	2ee\	gel	2C/	gel	4r	.	4r	.	4r	.
*	*	*	*	*	*	*	*	*	*	*	*ij
.	.	.	.	.	.	4c\	Se	4g\	Se	4ee\	Se
2r	.	2r	.	2r	.	4A/	qual-	4a\	qual-	4cc\	qual-
.	.	.	.	.	.	4G/	-che	4b#X\	-che	4dd\	-che
1r	.	4r	.	1r	.	2c\	gel	2g\	gel	2ee\	gel
.	.	4cc\	non	.	.	.	.	.	.	.	.
*	*	*	*	*	*	*	*	*	*	*	*Xij
.	.	2.ee\	tem-	.	.	4c\	non	4g\	non	4cc\	non
.	.	.	.	.	.	2c\	tem-	2g\	tem-	2cc\	tem-
=19-	=19-	=19-	=19-	=19-	=19-	=19-	=19-	=19-	=19-	=19-	=19-
0r	.	.	.	0r	.	.	.	.	.	.	-pra
.	.	4dd\	-pra	.	.	4G/	-pra	4g\	-pra	4b\	tant'-
!	!	!	!	!	!	!LO:SIC:v:t=custos E	!	!	!	!	!
.	.	4cc\	tant'-	.	.	4A/	tan.-	4e\	tant'-	4a\	-ar-
!	!	!	!	!	!	!LO:LB:g=original	!	!	!	!	!
.	.	4b\	-ar-	.	.	4E/	-t'ar-	4e\	-ar-	2g/	-do-
.	.	1cc	-do-	.	.	1A	-do-	1c	-do-	.	.
.	.	.	.	.	.	.	.	.	.	8f#X/	.
.	.	.	.	.	.	.	.	.	.	8e/	.
.	.	.	.	.	.	.	.	.	.	2f#X/	.
=20-	=20-	=20-	=20-	=20-	=20-	=20-	=20-	=20-	=20-	=20-	=20-
1r	.	1b	-re	1r	.	1G	-re	1d	-re	1g	-re
4r	.	4r	.	2G\	Io	4r	.	4r	.	4r	.
4G/	Io	4dd\	Io	.	.	4d\	Io	4g\	Io	4b\	Io
4.G/	mo-	4.ee\	mo-	4.C/	mo-	4.c\	mo-	4.g\	mo-	4.cc\	mo-
8D/	-ri-	8dd\	-ri-	8BB/	-ri-	8G/	-ri-	8g\	-ri-	8dd\	-ri-
=21-	=21-	=21-	=21-	=21-	=21-	=21-	=21-	=21-	=21-	=21-	=21-
4G/	-rò	4cc\	-rò	4C/	-rò	4E/	-rò	4g\	-rò	4ee\	-rò
!	!	!	!	!	!	!	!	!LO:SIC:v:t=custos f	!	!	!
4E/	d'A-	4g/	d'A-	4E\	d'A-	4G/	d'A-	4g\	d'A-	4b\	d'A-
!	!	!	!	!	!	!	!	!LO:LB:g=original	!	!	!
2A/	-mo-	2a\	-mo-	2D/	-mo-	2d\	-mo-	2f#X\	-mo-	2dd\	-mo-
!	!	!LO:SIC:v:t=custos dd	!	!	!	!	!	!	!	!LO:SIC:v:t=custos b	!
2G/	-re	2b\	-re	2GG/	-re	2d\	-re	2g\	-re	2dd\	-re
!	!	!LO:LB:g=original	!	!	!	!	!	!	!	!LO:LB:g=original	!
4r	.	4r	.	2G\	Io	4r	.	4r	.	4r	.
!LO:SIC:v:t=custos G	!	!	!	!	!	!	!	!	!	!	!
4G/	Io	4dd\	Io	.	.	4d\	Io	4g\	Io	4b\	Io
!LO:LB:g=original	!	!	!	!	!	!	!	!	!	!	!
=22-	=22-	=22-	=22-	=22-	=22-	=22-	=22-	=22-	=22-	=22-	=22-
4.G/	mo-	4.ee\	mo-	4.C/	mo-	4.c\	mo-	4.g\	mo-	4.cc\	mo-
8D/	-ri-	8dd\	-ri-	8BB/	-ri-	8G/	-ri-	8g\	-ri-	8dd\	-ri-
4G/	-rò	4cc\	-rò	4C/	-rò	4E/	-rò	4g\	-rò	4ee\	-rò
4E/	d'A-	4g\	d'A-	4E\	d'A-	4G/	d'A-	2g\	d'A-	4cc\	d'A-
1A	-mo-	1a	-mo-	1D	-mo-	1d	-mo-	.	.	1dd	-mo-
.	.	.	.	.	.	.	.	8f#X\	-mo-	.	.
.	.	.	.	.	.	.	.	8e\	.	.	.
.	.	.	.	.	.	.	.	2f#X\	.	.	.
=23-	=23-	=23-	=23-	=23-	=23-	=23-	=23-	=23-	=23-	=23-	=23-
00G	-re.	00b	-re.	00GG	-re.	00B	-re.	00g	-re.	00dd	-re
=24-	=24-	=24-	=24-	=24-	=24-	=24-	=24-	=24-	=24-	=24-	=24-
.	.	.	.	.	.	.	.	.	.	.	.
==	==	==	==	==	==	==	==	==	==	==	==
*-	*-	*-	*-	*-	*-	*-	*-	*-	*-	*-	*-
!!!system-decoration: [(s1,s2,s3,s4,s5,s6)]
!!!ENC: Andrzej Gręziak
!!!END: 2022-06-11
!!!ENC: Natalia Wrzos
!!!END: 2022-07-22
!!!YEC: Copyright 2022 Narodowy Instytut Fryderyka Chopina (https://polishscores.org)
!!!YEM: Licence CC BY 4.0 (https://creativecommons.org/licenses/by/4.0)
